src/topics/icons/xwiki.svg

<?xml version="1.0" encoding="UTF-8" standalone="no"?>
<svg width="512px" height="184px" viewBox="0 0 512 184" version="1.1" xmlns="http://www.w3.org/2000/svg" xmlns:xlink="http://www.w3.org/1999/xlink" preserveAspectRatio="xMidYMid">
	<g>
		<g>
			<path d="M91.631,51.1103 C84.802,51.1103 79.267,45.5753 79.267,38.7463 L79.267,13.1023 C79.267,6.2733 84.802,0.7383 91.631,0.7383 C98.46,0.7383 103.995,6.2733 103.995,13.1023 L103.995,38.7463 C103.995,45.5753 98.46,51.1103 91.631,51.1103" fill="#70B700"></path>
			<path d="M170.8979,104.7331 L145.2539,104.7331 C138.4249,104.7331 132.8899,99.1981 132.8899,92.3691 C132.8899,85.5401 138.4249,80.0051 145.2539,80.0051 L170.8979,80.0051 C177.7269,80.0051 183.2619,85.5401 183.2619,92.3691 C183.2619,99.1981 177.7269,104.7331 170.8979,104.7331" fill="#FF7700"></path>
			<path d="M91.631,184 C84.802,184 79.267,178.465 79.267,171.636 L79.267,145.992 C79.267,139.163 84.802,133.628 91.631,133.628 C98.46,133.628 103.995,139.163 103.995,145.992 L103.995,171.636 C103.995,178.465 98.46,184 91.631,184" fill="#FF0000"></path>
			<path d="M38.0083,104.7331 L12.3643,104.7331 C5.5353,104.7331 0.0003,99.1981 0.0003,92.3691 C0.0003,85.5401 5.5353,80.0051 12.3643,80.0051 L38.0083,80.0051 C44.8373,80.0051 50.3723,85.5401 50.3723,92.3691 C50.3723,99.1981 44.8373,104.7331 38.0083,104.7331" fill="#0087CB"></path>
			<path d="M120.1074,92.369 L165.4584,40.54 C173.2534,31.632 172.3504,18.093 163.4424,10.299 C154.5384,2.506 140.9954,3.404 133.2024,12.315 L91.6314,59.825 L50.0604,12.315 C42.2644,3.406 28.7284,2.507 19.8194,10.299 C10.9124,18.093 10.0084,31.632 17.8044,40.54 L63.1544,92.369 L17.8044,144.198 C10.0084,153.106 10.9124,166.645 19.8194,174.439 C23.8844,177.997 28.9134,179.742 33.9234,179.742 C39.8884,179.742 45.8244,177.266 50.0604,172.423 L91.6314,124.913 L133.2024,172.423 C137.4394,177.266 143.3734,179.742 149.3384,179.742 C154.3464,179.742 159.3774,177.997 163.4424,174.439 C172.3504,166.645 173.2534,153.106 165.4584,144.198 L120.1074,92.369 Z" fill="#505052"></path>
		</g>
		<path d="M478.1308,165.631 C476.8658,165.631 475.5998,165.148 474.6338,164.182 L406.2708,95.816 C404.3388,93.884 404.3388,90.753 406.2708,88.822 L474.6338,20.458 C476.5658,18.526 479.6958,18.526 481.6278,20.458 C483.5598,22.388 483.5598,25.521 481.6278,27.451 L416.7608,92.319 L481.6278,157.189 C483.5598,159.121 483.5598,162.252 481.6278,164.182 C480.6618,165.148 479.3958,165.631 478.1308,165.631 M365.0668,165.631 C362.3348,165.631 360.1218,163.417 360.1218,160.685 L360.1218,23.954 C360.1218,21.222 362.3348,19.009 365.0668,19.009 C367.7988,19.009 370.0128,21.222 370.0128,23.954 L370.0128,160.685 C370.0128,163.417 367.7988,165.631 365.0668,165.631 M399.2488,165.631 C396.5168,165.631 394.3028,163.417 394.3028,160.685 L394.3028,23.954 C394.3028,21.222 396.5168,19.009 399.2488,19.009 C401.9808,19.009 404.1938,21.222 404.1938,23.954 L404.1938,160.685 C404.1938,163.417 401.9808,165.631 399.2488,165.631 M507.0548,165.631 C504.3238,165.631 502.1088,163.417 502.1088,160.685 L502.1088,23.954 C502.1088,21.222 504.3238,19.009 507.0548,19.009 C509.7848,19.009 511.9998,21.222 511.9998,23.954 L511.9998,160.685 C511.9998,163.417 509.7848,165.631 507.0548,165.631 M309.8478,165.631 C307.7528,165.631 305.8688,164.306 305.1758,162.303 L262.5198,39.073 L219.8628,162.303 C219.1308,164.419 217.0938,165.778 214.8358,165.618 C212.6028,165.459 210.7558,163.818 210.3328,161.619 L184.0378,24.888 C183.5228,22.206 185.2788,19.614 187.9618,19.097 C190.6398,18.581 193.2358,20.339 193.7518,23.021 L216.5578,141.613 L257.8458,22.337 C258.5348,20.345 260.4118,19.009 262.5198,19.009 C264.6268,19.009 266.5038,20.345 267.1928,22.337 L308.4808,141.613 L331.2868,23.021 C331.8018,20.339 334.3888,18.581 337.0768,19.097 C339.7598,19.614 341.5158,22.206 341.0008,24.888 L314.7058,161.619 C314.2828,163.818 312.4358,165.459 310.2028,165.618 C310.0838,165.626 309.9648,165.631 309.8478,165.631" fill="#FF7700"></path>
	</g>
</svg>

<svg height="184" preserveAspectRatio="xMidYMid" viewBox="0 0 512 184" width="512" xmlns="http://www.w3.org/2000/svg"><path d="m91.631 51.1103c-6.829 0-12.364-5.535-12.364-12.364v-25.644c0-6.829 5.535-12.364 12.364-12.364s12.364 5.535 12.364 12.364v25.644c0 6.829-5.535 12.364-12.364 12.364" fill="#70b700"/><path d="m170.8979 104.7331h-25.644c-6.829 0-12.364-5.535-12.364-12.364s5.535-12.364 12.364-12.364h25.644c6.829 0 12.364 5.535 12.364 12.364s-5.535 12.364-12.364 12.364" fill="#f70"/><path d="m91.631 184c-6.829 0-12.364-5.535-12.364-12.364v-25.644c0-6.829 5.535-12.364 12.364-12.364s12.364 5.535 12.364 12.364v25.644c0 6.829-5.535 12.364-12.364 12.364" fill="#f00"/><path d="m38.0083 104.7331h-25.644c-6.829 0-12.364-5.535-12.364-12.364s5.535-12.364 12.364-12.364h25.644c6.829 0 12.364 5.535 12.364 12.364s-5.535 12.364-12.364 12.364" fill="#0087cb"/><path d="m120.1074 92.369 45.351-51.829c7.795-8.908 6.892-22.447-2.016-30.241-8.904-7.793-22.447-6.895-30.24 2.016l-41.571 47.51-41.571-47.51c-7.796-8.909-21.332-9.808-30.241-2.016-8.907 7.794-9.811 21.333-2.015 30.241l45.35 51.829-45.35 51.829c-7.796 8.908-6.892 22.447 2.015 30.241 4.065 3.558 9.094 5.303 14.104 5.303 5.965 0 11.901-2.476 16.137-7.319l41.571-47.51 41.571 47.51c4.237 4.843 10.171 7.319 16.136 7.319 5.008 0 10.039-1.745 14.104-5.303 8.908-7.794 9.811-21.333 2.016-30.241z" fill="#505052"/><path d="m478.1308 165.631c-1.265 0-2.531-.483-3.497-1.449l-68.363-68.366c-1.932-1.932-1.932-5.063 0-6.994l68.363-68.364c1.932-1.932 5.062-1.932 6.994 0 1.932 1.93 1.932 5.063 0 6.993l-64.867 64.868 64.867 64.87c1.932 1.932 1.932 5.063 0 6.993-.966.966-2.232 1.449-3.497 1.449m-113.064 0c-2.732 0-4.945-2.214-4.945-4.946v-136.731c0-2.732 2.213-4.945 4.945-4.945s4.946 2.213 4.946 4.945v136.731c0 2.732-2.214 4.946-4.946 4.946m34.182 0c-2.732 0-4.946-2.214-4.946-4.946v-136.731c0-2.732 2.214-4.945 4.946-4.945s4.945 2.213 4.945 4.945v136.731c0 2.732-2.213 4.946-4.945 4.946m107.806 0c-2.731 0-4.946-2.214-4.946-4.946v-136.731c0-2.732 2.215-4.945 4.946-4.945 2.73 0 4.945 2.213 4.945 4.945v136.731c0 2.732-2.215 4.946-4.945 4.946m-197.207 0c-2.095 0-3.979-1.325-4.672-3.328l-42.656-123.23-42.657 123.23c-.732 2.116-2.769 3.475-5.027 3.315-2.233-.159-4.08-1.8-4.503-3.999l-26.295-136.731c-.515-2.682 1.241-5.274 3.924-5.791 2.678-.516 5.274 1.242 5.79 3.924l22.806 118.592 41.288-119.276c.689-1.992 2.566-3.328 4.674-3.328 2.107 0 3.984 1.336 4.673 3.328l41.288 119.276 22.806-118.592c.515-2.682 3.102-4.44 5.79-3.924 2.683.517 4.439 3.109 3.924 5.791l-26.295 136.731c-.423 2.199-2.27 3.84-4.503 3.999-.119.008-.238.013-.355.013" fill="#f70"/></svg>
